static/img/icons/ico-facebook.svg

<svg fill="none" height="32" viewBox="0 0 32 32" width="32" xmlns="http://www.w3.org/2000/svg"><path d="m30.72 0h-29.44c-.708 0-1.28.572-1.28 1.28v29.44c0 .708.572 1.28 1.28 1.28h29.44c.708 0 1.28-.572 1.28-1.28v-29.44c0-.708-.572-1.28-1.28-1.28zm-3.696 9.34h-2.556c-2.004 0-2.392.952-2.392 2.352v3.084h4.784l-.624 4.828h-4.16v12.396h-4.988v-12.392h-4.172v-4.832h4.172v-3.56c0-4.132 2.524-6.384 6.212-6.384 1.768 0 3.284.132 3.728.192v4.316z" fill="#3b5998"/></svg>

<svg width="32" height="32" viewBox="0 0 32 32" fill="none" xmlns="http://www.w3.org/2000/svg">
<path d="M30.72 0H1.28C0.572 0 0 0.572 0 1.28V30.72C0 31.428 0.572 32 1.28 32H30.72C31.428 32 32 31.428 32 30.72V1.28C32 0.572 31.428 0 30.72 0ZM27.024 9.34H24.468C22.464 9.34 22.076 10.292 22.076 11.692V14.776H26.86L26.236 19.604H22.076V32H17.088V19.608H12.916V14.776H17.088V11.216C17.088 7.084 19.612 4.832 23.3 4.832C25.068 4.832 26.584 4.964 27.028 5.024V9.34H27.024Z" fill="#3B5998"/>
</svg>
